X:3062
T:Langt ud' i skoven
C:anon.
O:Denmark
R:Children's song, lullaby
F:http://abc.musicaviva.com/tunes/denmark/langt-ud-i-skoven.abc
M:3/4
L:1/8
K:F
"F"(AA) AA AA|"C7"BA GF E2|"F"F2 FA GF|(EF) "G7"DE "C"C2|
w:Langt_ ud' i sko-ven l\aa et li-te bjerg, al-drig s\aa jeg s\aa dej--ligt et bjerg,
|:"F"F2"^1)"FA "C"GC:|"F"FG AB c2-|"F"c4AF|"C7"G2"F"F2z2|]



